X:188
T:Reel 188
M:4/4
K:Amaj
L:1/8
F>C (3CB,C F2EC|B,>A, (3A,B,A, A2GA|F>B, (3CB,A, F2EC|B,A,A,C B,A,B,A,|C>B, (3B,B,B, A2GA|F>B, (3CB,A, A2GA|F>B, (3B,B,B, FAGE|FEB,C A,2GA|BB, (3B,B,B, A2GA|FB,B,G AB,CA|BB,B,B, G2GE|FB,B,C B,2CD|F>B, (3B,B,B, A2GA|FB,B,B, FB,BA|FBBG A2GE| (3FGA EC B,2B,A,|
